X:8
T:Walzer FC 2-
M:3/4
L:1/4
K:Fmaj
C/2C/2 |: "C7"CEG | BA>G | "F"FAc | fed | "C7"cEG | dcE | "F"F>Ac | fAc | "C7"CEG | BA>G | "F"FAc | 
fed | "C7"cEG | dcE | "F"FA>G |1 Fz C/2C/2 :|2 FzG |: [K:Cmaj] "C"e e/2e/2 e/2e/2 | efe | "G7"dzc | B2z | gzf | 
ezd | "C"ceG | czG | e e/2e/2 e/2e/2 | efe | "G7"dzc | BzB | gzf | ezd | "C"c>c c |1 czG :|2 czz |] 

